public/img/workExperiences/Micropole.svg

<svg xmlns="http://www.w3.org/2000/svg" xmlns:xlink="http://www.w3.org/1999/xlink" viewBox="0 0 1023.69 93.08"><defs><style>.cls-1{fill:url(#Dégradé_sans_nom_13);}.cls-2{fill:url(#Dégradé_sans_nom_13-2);}.cls-3{fill:url(#Dégradé_sans_nom_13-3);}</style><linearGradient id="D&#xE9;grad&#xE9;_sans_nom_13" x1="991.03" y1="95.48" x2="991.03" y2="14.43" gradientUnits="userSpaceOnUse"><stop offset="0" stop-color="#5c37cd"></stop><stop offset="1" stop-color="#e6007e"></stop></linearGradient><linearGradient id="D&#xE9;grad&#xE9;_sans_nom_13-2" x1="1001.98" y1="95.48" x2="1001.98" y2="14.43" xlink:href="#D&#xE9;grad&#xE9;_sans_nom_13"></linearGradient><linearGradient id="D&#xE9;grad&#xE9;_sans_nom_13-3" x1="1012.94" y1="95.48" x2="1012.94" y2="14.43" xlink:href="#D&#xE9;grad&#xE9;_sans_nom_13"></linearGradient></defs><g id="Layer_2" data-name="Layer 2"><g id="Calque_1" data-name="Calque 1"><path id="Rectangle_509_copie_8" data-name="Rectangle 509 copie 8" d="M68.55,75.1l46.6-54.82-.26,13.13V91.17h13.79V1.91H114.89L64.34,61.58,13.66,1.91H0V91.16H13.78V33.41L13.4,20.27,60,75.1Zm77.33,16.07h13.79V1.91H145.88V91.16Zm136.59-17.6a144.58,144.58,0,0,1-42.25,6.63c-37.28,0-51.84-14.16-51.84-33.66s14.56-33.66,51.84-33.66a144.25,144.25,0,0,1,42.25,6.63l3.19-12.37C279.92,5.23,264,0,240.22,0c-46.47,0-65.88,20-65.88,46.54s19.41,46.53,65.88,46.53c23.74,0,39.7-5.22,45.44-7.14ZM299,91.17h13.78V59.29h32.05l41.74,31.87h21.45L364.4,58.78h5.36c18.9.13,34.6-7,34.6-28.18,0-21.42-15.32-28.69-34.47-28.69H299V91.16Zm13.78-44.76V14.79h57.45c11.37,0,19.92,4.08,19.92,15.81S381.51,46.41,370,46.41Zm103.51.13c0,26.52,20.55,46.54,60,46.54s60-20,60-46.54S515.78,0,476.33,0s-60,20-60,46.54Zm14,0c0-19.51,14.94-33.66,46-33.66S522.16,27,522.16,46.54,507.23,80.2,476.33,80.2s-46-14.15-46-33.66Zm134.4,44.63V65h53.11c20.55,0,38.42-8,38.42-31.62s-17.87-31.5-38.42-31.5H551V91.16h13.79Zm54-76.38c13.15,0,23.36,4.72,23.36,18.62s-10.21,18.74-23.36,18.74h-54V14.79Zm48.36,31.75c0,26.52,20.55,46.54,60,46.54s60-20,60-46.54S766.58,0,727.13,0s-60,20-60,46.54Zm14,0c0-19.51,14.94-33.66,46-33.66S773,27,773,46.54,758,80.2,727.13,80.2s-46-14.15-46-33.66ZM894.84,91.17V78.29H815.57V1.91H801.78V91.16h93.06ZM973.11,15H914.69V2H980.6ZM951.18,53H914.69V40h44ZM929.26,91H914.69V78h22.06Z"></path><polygon class="cls-1" points="958.37 90.99 965.86 78 1023.69 78 1023.69 90.99 958.37 90.99"></polygon><polygon class="cls-2" points="987.77 40 1023.69 40 1023.69 52.99 980.28 52.99 987.77 40"></polygon><polygon class="cls-3" points="1009.69 2 1023.69 2 1023.69 14.99 1002.2 14.99 1009.69 2"></polygon></g></g></svg>

<svg width="1024" height="94" viewBox="0 0 1024 94" fill="none" xmlns="http://www.w3.org/2000/svg">
<g clip-path="url(#clip0_195_444)">
<path d="M68.55 75.1L115.15 20.28L114.89 33.41V91.17H128.68V1.91H114.89L64.34 61.58L13.66 1.91H0V91.16H13.78V33.41L13.4 20.27L60 75.1H68.55ZM145.88 91.17H159.67V1.91H145.88V91.16V91.17ZM282.47 73.57C268.793 77.8622 254.554 80.0967 240.22 80.2C202.94 80.2 188.38 66.04 188.38 46.54C188.38 27.04 202.94 12.88 240.22 12.88C254.555 12.9784 268.794 15.213 282.47 19.51L285.66 7.14C279.92 5.23 264 0 240.22 0C193.75 0 174.34 20 174.34 46.54C174.34 73.08 193.75 93.07 240.22 93.07C263.96 93.07 279.92 87.85 285.66 85.93L282.47 73.57ZM299 91.17H312.78V59.29H344.83L386.57 91.16H408.02L364.4 58.78H369.76C388.66 58.91 404.36 51.78 404.36 30.6C404.36 9.18 389.04 1.91 369.89 1.91H299V91.16V91.17ZM312.78 46.41V14.79H370.23C381.6 14.79 390.15 18.87 390.15 30.6C390.15 42.33 381.51 46.41 370 46.41H312.78ZM416.29 46.54C416.29 73.06 436.84 93.08 476.29 93.08C515.74 93.08 536.29 73.08 536.29 46.54C536.29 20 515.78 0 476.33 0C436.88 0 416.33 20 416.33 46.54H416.29ZM430.29 46.54C430.29 27.03 445.23 12.88 476.29 12.88C507.35 12.88 522.16 27 522.16 46.54C522.16 66.08 507.23 80.2 476.33 80.2C445.43 80.2 430.33 66.05 430.33 46.54H430.29ZM564.69 91.17V65H617.8C638.35 65 656.22 57 656.22 33.38C656.22 9.76 638.35 1.88 617.8 1.88H551V91.16H564.79L564.69 91.17ZM618.69 14.79C631.84 14.79 642.05 19.51 642.05 33.41C642.05 47.31 631.84 52.15 618.69 52.15H564.69V14.79H618.69ZM667.05 46.54C667.05 73.06 687.6 93.08 727.05 93.08C766.5 93.08 787.05 73.08 787.05 46.54C787.05 20 766.58 0 727.13 0C687.68 0 667.13 20 667.13 46.54H667.05ZM681.05 46.54C681.05 27.03 695.99 12.88 727.05 12.88C758.11 12.88 773 27 773 46.54C773 66.08 758 80.2 727.13 80.2C696.26 80.2 681.13 66.05 681.13 46.54H681.05ZM894.84 91.17V78.29H815.57V1.91H801.78V91.16H894.84V91.17ZM973.11 15H914.69V2H980.6L973.11 15ZM951.18 53H914.69V40H958.69L951.18 53ZM929.26 91H914.69V78H936.75L929.26 91Z" fill="white"/>
<path d="M958.37 90.99L965.86 78H1023.69V90.99H958.37Z" fill="url(#paint0_linear_195_444)"/>
<path d="M987.77 40H1023.69V52.99H980.28L987.77 40Z" fill="url(#paint1_linear_195_444)"/>
<path d="M1009.69 2H1023.69V14.99H1002.2L1009.69 2Z" fill="url(#paint2_linear_195_444)"/>
</g>
<defs>
<linearGradient id="paint0_linear_195_444" x1="991.03" y1="95.48" x2="991.03" y2="14.43" gradientUnits="userSpaceOnUse">
<stop stop-color="#5C37CD"/>
<stop offset="1" stop-color="#E6007E"/>
</linearGradient>
<linearGradient id="paint1_linear_195_444" x1="1001.98" y1="95.48" x2="1001.98" y2="14.43" gradientUnits="userSpaceOnUse">
<stop stop-color="#5C37CD"/>
<stop offset="1" stop-color="#E6007E"/>
</linearGradient>
<linearGradient id="paint2_linear_195_444" x1="1012.94" y1="95.48" x2="1012.94" y2="14.43" gradientUnits="userSpaceOnUse">
<stop stop-color="#5C37CD"/>
<stop offset="1" stop-color="#E6007E"/>
</linearGradient>
<clipPath id="clip0_195_444">
<rect width="1023.69" height="93.08" fill="white"/>
</clipPath>
</defs>
</svg>
